X: 9004
T: Da Aald Hill Grinnd
R: jig
M: 6/8
K: Gmajor
G>AG GcB|BAG G2e|edc BAG|BAA A2D|G>AG GcB|Bed dgf|e2G FGA|AGG G:|
fg||A>BA Afd|cAB A2A|ABA AFD|FEE EFG|A>BA Afd|cAB A2A|Bcd edc|ded d:|

